Suru++-Ubuntu/apps/scalable/crossstudio.svg

<svg width="256" height="256" version="1.1" viewBox="0 0 256 256" xmlns="http://www.w3.org/2000/svg" xmlns:xlink="http://www.w3.org/1999/xlink">
 <defs>
  <linearGradient id="linearGradient1108" x1="296" x2="296" y1="-212" y2="236" gradientUnits="userSpaceOnUse">
   <stop style="stop-color:#ffffff" offset="0"/>
   <stop style="stop-color:#ffffff;stop-opacity:.09803922" offset=".125"/>
   <stop style="stop-color:#000000;stop-opacity:.09803922" offset=".925"/>
   <stop style="stop-color:#000000;stop-opacity:.49803922" offset="1"/>
  </linearGradient>
  <clipPath id="clipPath1082-3-361">
   <path d="M 361.9375,-212 C 507.2348,-212 528,-191.28677 528,-46.125 V 70.125 C 528,215.28618 507.2348,236 361.9375,236 H 214.0625 C 68.7652,236 48,215.28618 48,70.125 V -46.125 C 48,-191.28677 68.7652,-212 214.0625,-212 Z" style="fill:#8c59d9"/>
  </clipPath>
  <linearGradient id="linearGradient1044" x1="88" x2="256" y1="28" y2="284" gradientTransform="matrix(1.0193681,0,0,1.0193681,-26.943941,-32.905179)" gradientUnits="userSpaceOnUse">
   <stop style="stop-color:#e8e8e8" offset="0"/>
   <stop style="stop-color:#f5f5f5" offset="1"/>
  </linearGradient>
  <filter id="filter4569" x="-.01" y="-.01" width="1.023" height="1.025" style="color-interpolation-filters:sRGB">
   <feGaussianBlur stdDeviation="1.16"/>
  </filter>
  <filter id="filter939" x="-.02" y="-.03" width="1.046" height="1.05" style="color-interpolation-filters:sRGB">
   <feGaussianBlur stdDeviation="2.32"/>
  </filter>
 </defs>
 <path transform="matrix(1.019368,0,0,1.019368,-7.2181772e-8,8.3098661)" d="m162.53675 5.5680001c72.64865 0 83.03125 10.356615 83.03125 82.937505v58.125005c0 72.58059-10.3826 82.9375-83.03125 82.9375h-73.937496c-72.648654 0-83.031254-10.35691-83.031254-82.9375v-58.125005c0-72.58089 10.3826-82.937505 83.031254-82.937505z" style="filter:url(#filter939);opacity:.2"/>
 <path d="m165.68477 11.946967c74.05571 0 84.6394 10.557203 84.6394 84.543835v59.250778c0 73.98633-10.58369 84.54383-84.6394 84.54383h-75.369521c-74.055717 0-84.639408-10.5575-84.639408-84.54383v-59.250778c0-73.986632 10.583691-84.543835 84.639408-84.543835z" style="fill:none;opacity:.1;stroke-linecap:round;stroke-linejoin:round;stroke-width:4.0774717;stroke:#000000"/>
 <path transform="matrix(1.019368,0,0,1.019368,-7.2181772e-8,8.3098661)" d="m162.53675 3.5680001c72.64865 0 83.03125 10.356615 83.03125 82.937505v58.125005c0 72.58059-10.3826 82.9375-83.03125 82.9375h-73.937496c-72.648654 0-83.031254-10.35691-83.031254-82.9375v-58.125005c0-72.58089 10.3826-82.937505 83.031254-82.937505z" style="filter:url(#filter4569);opacity:.1"/>
 <path d="m165.68476 11.946967c74.05571 0 84.6394 10.557203 84.6394 84.543835v59.250778c0 73.98633-10.58369 84.54383-84.6394 84.54383h-75.369522c-74.055712 0-84.639403-10.5575-84.639403-84.54383v-59.250778c0-73.986632 10.583691-84.543835 84.639403-84.543835z" style="fill:url(#linearGradient1044)"/>
 <path transform="matrix(.50968403 0 0 .50968403 -18.788999 120)" d="M 361.9375,-212 C 507.2348,-212 528,-191.28677 528,-46.125 V 70.125 C 528,215.28618 507.2348,236 361.9375,236 H 214.0625 C 68.7652,236 48,215.28618 48,70.125 V -46.125 C 48,-191.28677 68.7652,-212 214.0625,-212 Z" clip-path="url(#clipPath1082-3-361)" style="fill:none;opacity:.4;stroke-linecap:round;stroke-linejoin:round;stroke-width:8;stroke:url(#linearGradient1108)"/>
 <path d="m128.30546 11.946967v228.33844h37.59065c73.87079 0 84.42805-10.5575 84.42805-84.54383v-59.250778c0-73.986632-10.55726-84.543835-84.42805-84.543835z" style="fill:#ffffff;opacity:.2"/>
 <path d="m90.315238 240.28541c-74.055712 0-84.639403-10.67156-84.639403-85.45963v-29.94628h244.64832v29.94628c0 74.78807-10.58369 85.45963-84.6394 85.45963z" style="fill:#ffffff;opacity:.25"/>
 <g transform="translate(-1.8550728,1.826333)">
  <path d="m213.51274 207.94753s-29.28019-83.65779-83.65767-83.65779v25.09732c29.28018 29.28024 33.46306 58.56047 54.37748 58.56047z" style="fill:#eba43c"/>
  <path d="m46.197401 207.94753s29.280183-83.65779 83.657669-83.65779c9.75607-0.68883 23.26959 4.4946 29.46335 8.62399-15.3043-1.61255-29.46335 16.47333-29.46335 16.47333-29.28018 29.28024-33.463067 58.56047-54.377483 58.56047z" style="fill:#4f4f4f"/>
  <path d="m46.197401 40.632181s29.28018 83.657559 83.657659 83.657559l1e-5 -25.09731c-29.28019-29.280012-33.46307-58.560249-54.377486-58.560249z" style="fill:#568cbf"/>
  <path d="m213.51274 40.632181s-29.28019 83.657559-83.65767 83.657559c-9.75607 0.68884-23.26959-4.49459-29.46336-8.62376 15.3043 1.61255 29.46336-16.47355 29.46336-16.47355 29.28018-29.280012 33.46306-58.560249 54.37747-58.560249z" style="fill:#4f4f4f"/>
 </g>
</svg>

<svg xmlns="http://www.w3.org/2000/svg" xmlns:xlink="http://www.w3.org/1999/xlink" width="256" height="256" version="1.1" viewBox="0 0 256 256">
 <defs>
  <linearGradient id="linearGradient1108" x1="296" x2="296" y1="-212" y2="236" gradientUnits="userSpaceOnUse" xlink:href="#linearGradient1013"/>
  <linearGradient id="linearGradient1013">
   <stop style="stop-color:#ffffff" offset="0"/>
   <stop offset=".125" style="stop-color:#ffffff;stop-opacity:0.09803922"/>
   <stop offset=".925" style="stop-color:#000000;stop-opacity:0.09803922"/>
   <stop style="stop-color:#000000;stop-opacity:0.49803922" offset="1"/>
  </linearGradient>
  <clipPath id="clipPath1082-3-361" clipPathUnits="userSpaceOnUse">
   <path style="fill:#8c59d9" d="M 361.9375,-212 C 507.2348,-212 528,-191.28677 528,-46.125 V 70.125 C 528,215.28618 507.2348,236 361.9375,236 H 214.0625 C 68.7652,236 48,215.28618 48,70.125 V -46.125 C 48,-191.28677 68.7652,-212 214.0625,-212 Z"/>
  </clipPath>
  <linearGradient id="linearGradient1044" x1="88" x2="256" y1="28" y2="284" gradientTransform="matrix(1.0193681,0,0,1.0193681,-26.943941,-32.905179)" gradientUnits="userSpaceOnUse" xlink:href="#linearGradient4245"/>
  <linearGradient id="linearGradient4245">
   <stop style="stop-color:#e8e8e8" offset="0"/>
   <stop style="stop-color:#f5f5f5" offset="1"/>
  </linearGradient>
  <filter id="filter4569" width="1.023" height="1.025" x="-.01" y="-.01" style="color-interpolation-filters:sRGB">
   <feGaussianBlur stdDeviation="1.16"/>
  </filter>
  <filter id="filter939" width="1.046" height="1.05" x="-.02" y="-.03" style="color-interpolation-filters:sRGB">
   <feGaussianBlur stdDeviation="2.32"/>
  </filter>
 </defs>
 <path d="m 162.53675,5.5680001 c 72.64865,0 83.03125,10.3566149 83.03125,82.9375049 v 58.125005 c 0,72.58059 -10.3826,82.9375 -83.03125,82.9375 H 88.599254 C 15.9506,229.56801 5.568,219.2111 5.568,146.63051 V 88.505505 c 0,-72.58089 10.3826,-82.9375049 83.031254,-82.9375049 z" transform="matrix(1.019368,0,0,1.019368,-7.2181772e-8,8.3098661)" style="opacity:0.2;filter:url(#filter939)"/>
 <path style="opacity:0.1;fill:none;stroke:#000000;stroke-width:4.07747173;stroke-linecap:round;stroke-linejoin:round" d="m 165.68477,11.946967 c 74.05571,0 84.6394,10.557203 84.6394,84.543835 v 59.250778 c 0,73.98633 -10.58369,84.54383 -84.6394,84.54383 H 90.315249 c -74.055717,0 -84.6394076,-10.5575 -84.6394076,-84.54383 V 96.490802 c 0,-73.986632 10.5836906,-84.543835 84.6394076,-84.543835 z"/>
 <path style="opacity:0.1;filter:url(#filter4569)" d="m 162.53675,3.5680001 c 72.64865,0 83.03125,10.3566149 83.03125,82.9375049 v 58.125005 c 0,72.58059 -10.3826,82.9375 -83.03125,82.9375 H 88.599254 C 15.9506,227.56801 5.568,217.2111 5.568,144.63051 V 86.505505 c 0,-72.58089 10.3826,-82.9375049 83.031254,-82.9375049 z" transform="matrix(1.019368,0,0,1.019368,-7.2181772e-8,8.3098661)"/>
 <path d="m 165.68476,11.946967 c 74.05571,0 84.6394,10.557203 84.6394,84.543835 v 59.250778 c 0,73.98633 -10.58369,84.54383 -84.6394,84.54383 H 90.315238 c -74.055712,0 -84.6394026,-10.5575 -84.6394026,-84.54383 V 96.490802 c 0,-73.986632 10.5836906,-84.543835 84.6394026,-84.543835 z" style="fill:url(#linearGradient1044)"/>
 <path style="opacity:0.4;fill:none;stroke:url(#linearGradient1108);stroke-width:8;stroke-linecap:round;stroke-linejoin:round" d="M 361.9375,-212 C 507.2348,-212 528,-191.28677 528,-46.125 V 70.125 C 528,215.28618 507.2348,236 361.9375,236 H 214.0625 C 68.7652,236 48,215.28618 48,70.125 V -46.125 C 48,-191.28677 68.7652,-212 214.0625,-212 Z" clip-path="url(#clipPath1082-3-361)" transform="matrix(0.50968403,0,0,0.50968403,-18.788999,120)"/>
 <path d="M 128.30546,11.946967 V 240.28541 h 37.59065 c 73.87079,0 84.42805,-10.5575 84.42805,-84.54383 V 96.490802 c 0,-73.986632 -10.55726,-84.543835 -84.42805,-84.543835 z" style="opacity:0.2;fill:#ffffff"/>
 <path d="m 90.315238,240.28541 c -74.055712,0 -84.6394026,-10.67156 -84.6394026,-85.45963 V 124.8795 H 250.32416 v 29.94628 c 0,74.78807 -10.58369,85.45963 -84.6394,85.45963 z" style="opacity:0.25;fill:#ffffff"/>
 <g transform="translate(-1.8550728,1.826333)">
  <path style="fill:#eba43c" d="m 213.51274,207.94753 c 0,0 -29.28019,-83.65779 -83.65767,-83.65779 v 25.09732 c 29.28018,29.28024 33.46306,58.56047 54.37748,58.56047 z"/>
  <path style="fill:#4f4f4f" d="m 46.197401,207.94753 c 0,0 29.280183,-83.65779 83.657669,-83.65779 9.75607,-0.68883 23.26959,4.4946 29.46335,8.62399 -15.3043,-1.61255 -29.46335,16.47333 -29.46335,16.47333 -29.28018,29.28024 -33.463067,58.56047 -54.377483,58.56047 z"/>
  <path style="fill:#568cbf" d="m 46.197401,40.632181 c 0,0 29.28018,83.657559 83.657659,83.657559 l 1e-5,-25.09731 C 100.57488,69.912418 96.392,40.632181 75.477584,40.632181 Z"/>
  <path style="fill:#4f4f4f" d="m 213.51274,40.632181 c 0,0 -29.28019,83.657559 -83.65767,83.657559 -9.75607,0.68884 -23.26959,-4.49459 -29.46336,-8.62376 15.3043,1.61255 29.46336,-16.47355 29.46336,-16.47355 29.28018,-29.280012 33.46306,-58.560249 54.37747,-58.560249 z"/>
 </g>
</svg>
